X:1
T:C Major                      Jeremiah Ingalls, 1805
T:Anonymous English Author, before 1757                     87. 87. 87. 87.
T:The Savior's Merits
T:Transcribed from Ingalls' Christian Harmony, 1805.
%%score [ 1 2 3 ]
L:1/8
Q:1/4=100
M:6/8
K:C
V:1 treble nm="Tr." snm="Tr."
V:2 treble-8 nm="T." snm="T."
V:3 bass nm="B." snm="B."
V:1
 G2 A G2 A | c2 A c d2 | e2 c d2 e | c2 d G3 | G2 A G2 A | c2 A c d2 | e2 c d2 e | f2 d e3 | %8
w: 1.~~Sa vior, I do|feel thy me- rit,|Sprin- kled with re-|dee- ming blood,|And my wea- ry|trou- bled spi- rit|Now finds rest with|thee, my God;|
w: 2.~Glo- ry, glo- ry,|glo- ry, glo- ry,|Glo- ry be to|God on high,|Glo- ry, glo- ry,|glo- ry, glo- ry,|Sing his prai- ses|through the sky;|
w: 3.~~Now I'll sing my|Sa- vior's me- rit,|Tell the world of|his dear name,|That if a- ny|wants his spi- rit,|He is still the|ve- ry same;|
 e2 c c2 B | A2 d c G2 | c2 d G2 E | F2 G A3 | c2 d c2 G | AG^F G A2 | c2 A d2 e | f2 d e3- | e6 |] %17
w: I am safe, and|I am hap- py,|While in thy dear|arms I lie;|Sin nor Sa- tan|can- * not hurt me,|While my Sa- vior|is so nigh.||
w: Glo- ry, glo- ry,|glo- ry, glo- ry,|Glo- ry to the|Fa- ther give;|Glo- ry, glo- ry,|glo- * ry, glo- ry,|Sing his prai- es,|all that live.||
w: He that as- keth,|soon re- cei- veth,|He that seeks is|sure to find,|Who- so- e'er on|him~ _ be- lie- veth,|He will ne- ver|cast be- hind.||
V:2
 c2 A d2 c | e2 d c A2 | c2 A A2 G | c2 d c3 | c2 A d2 c | e2 d c A2 | c2 A A2 G | c2 d c3 | %8
w: 4.~~Glo- ry, glo- ry,|glo- ry, glo- ry,|Glo- rious Christ of|heav'n- ly birth,|Glo- ry, glo- ry,|glo- ry, glo- ry,|Sing his prai- ses|through the earth;'|
w: 5.~~Now our Ad- vo-|cate is plea- ding|With his Fa- ther|and our God;|And for us is|in- ter- ce- ding,|As the pur- chase|of his blood;|
w: 6.~~Wor- thy, wor- thy,|wor- thy, wor- thy,|Wor- thy is the|Lamb of God,|Wor- thy, wor- thy,|wor- thy, wor- thy,|Loved and washed us|in his blood;|
 c2 e g2 b | a2 f e d2 | f2 f e2 g | d2 c A3 | e2 f e2 e | dcd e c2 | c2 A A2 G | c2 d c3- | c6 |] %17
w: Glo- ry, glo- ry,|glo- ry, glo- ry,|Glo- ry to the|Spi- rit be;|Glo- ry, glo- ry,|glo- * ry, glo- ry,|To the sa- cred|One in Three.||
w: Now me- thinks I|hear him pray- ing,|Fa- ther! save them,|I have dies,|And the Fa- ther|an- * swers, say- ing,|They are free- ly|jus- ti- fied.||
w: Ho- ly, ho- ly,|ho- ly, ho- ly,|Ho- ly is the|Lord of hosts,|Ho- ly, ho- ly,|ho- * ly, ho- ly,|Fa- ther, Son, and|Ho- ly Ghost.||
V:3
 C,2 D, G,,2 A,, | C,2 D, E, D,2 | E,2 F, D,2 C, | F,2 G, C,3 | C,2 D, G,,2 A,, | C,2 D, E, D,2 | %6
w: 7.~~Soon we hope to|sing most sweet- ly,|At the mar- riage|of the Lamb,|When his bride is|dressed com- plete- ly,|
w: 8.~~Glo- ry, ho- nor,|and thanks- gi- ving,|Be un- to the|Lord our King;|O let eve- ry|crea- ture li- ving|
w: 9.~~Bles- sed, bles- sed,|bles- sed, bles- sed,|Bles- sed be the|God of heav'n,|Bles- sed, bles- sed,|bles- sed, bles- sed,|
 E,2 F, D,2 C, | F,2 G, C,3 | C,2 C, C,2 E, | F,2 D, E, G,2 | F,2 D, E,2 C, | B,,2 C, D,3 | %12
w: Fit to cel- e-|brate the same;|O what shouts shall|then be ring- ing|Round the throne of|God most high,|
w: The Re- dee- mer's|prai- ses sing;|Hal- le- lu- jah,|hal- le- lu- jah!|Now the Lord Je-|ho- vah reigns;|
w: Who has all our|sins for- giv'n;|Prai- sed, prai- sed,|prai- sed, prai- sed,|Prai- sed be his|ho- ly name,|
 E,2 D, C,2 C, | D,E,D, C, A,,2 | C,2 D, D,2 C, | F,2 G, C,3- | C,6 |] %17
w: And what sweet, me-|lo- * dious sing- ing|Then shall e- cho|through the sky.||
w: Hal- le- lu- jah,|hal- * le- lu- jah!|Sing his praise in|high- est strains.||
w: Prai- sed, prai- sed,|prai- * sed, prai- sed,|Now and ev- er|more. A- men.||

